src/assets/skills/empathy.svg

<svg fill="none" height="737" viewBox="0 0 736 737" width="736" xmlns="http://www.w3.org/2000/svg" xmlns:xlink="http://www.w3.org/1999/xlink"><linearGradient id="a" gradientUnits="userSpaceOnUse" x1="368" x2="368" y1="0" y2="737"><stop offset=".00225706" stop-color="#2b5355"/><stop offset="1"/></linearGradient><path d="m0 368.5c0-203.241 164.759-368.5 368-368.5 203.241 0 368 165.259 368 368.5 0 203.241-164.759 368.5-368 368.5-203.241 0-368-165.259-368-368.5z" fill="url(#a)"/><g clip-rule="evenodd" fill-rule="evenodd"><path d="m484.909 135.51c100.62 0 168.091 94.126 168.091 181.778 0 177.925-280.122 323.599-285.224 323.599-5.103 0-285.2247-145.674-285.2247-323.599 0-87.652 67.4707-181.778 168.0927-181.778 57.52 0 95.296 28.584 117.132 54.043 21.836-25.459 59.612-54.043 117.133-54.043z" fill="#2ccbd3"/><path d="m452.2 205.216c72.796 0 121.608 68.253 121.608 131.809 0 129.014-202.656 234.645-206.348 234.645-3.691 0-206.347-105.631-206.347-234.645 0-63.556 48.812-131.809 121.608-131.809 41.613 0 68.942 20.728 84.739 39.188 15.797-18.46 43.127-39.188 84.74-39.188z" fill="#e1e4e5"/><path d="m429.876 254.483c53.254 0 88.963 49.896 88.963 96.359 0 94.316-148.253 171.537-150.954 171.537s-150.954-77.221-150.954-171.537c0-46.463 35.709-96.359 88.963-96.359 30.442 0 50.435 15.154 61.991 28.649 11.556-13.495 31.549-28.649 61.991-28.649z" fill="#fff"/></g></svg>

<svg width="736" height="737" viewBox="0 0 736 737" fill="none" xmlns="http://www.w3.org/2000/svg">
<path d="M0 368.5C0 165.259 164.759 0 368 0V0C571.241 0 736 165.259 736 368.5V368.5C736 571.741 571.241 737 368 737V737C164.759 737 0 571.741 0 368.5V368.5Z" fill="url(#paint0_linear_108_224)"/>
<path fill-rule="evenodd" clip-rule="evenodd" d="M484.909 135.51C585.529 135.51 653 229.636 653 317.288C653 495.213 372.878 640.887 367.776 640.887C362.673 640.887 82.5513 495.213 82.5513 317.288C82.5513 229.636 150.022 135.51 250.644 135.51C308.164 135.51 345.94 164.094 367.776 189.553C389.612 164.094 427.388 135.51 484.909 135.51V135.51Z" fill="#2CCBD3"/>
<path fill-rule="evenodd" clip-rule="evenodd" d="M452.2 205.216C524.996 205.216 573.808 273.469 573.808 337.025C573.808 466.039 371.152 571.67 367.46 571.67C363.769 571.67 161.113 466.039 161.113 337.025C161.113 273.469 209.925 205.216 282.721 205.216C324.334 205.216 351.663 225.944 367.46 244.404C383.257 225.944 410.587 205.216 452.2 205.216Z" fill="#E1E4E5"/>
<path fill-rule="evenodd" clip-rule="evenodd" d="M429.876 254.483C483.13 254.483 518.839 304.379 518.839 350.842C518.839 445.158 370.586 522.379 367.885 522.379C365.184 522.379 216.931 445.158 216.931 350.842C216.931 304.379 252.64 254.483 305.894 254.483C336.336 254.483 356.329 269.637 367.885 283.132C379.441 269.637 399.434 254.483 429.876 254.483Z" fill="white"/>
<defs>
<linearGradient id="paint0_linear_108_224" x1="368" y1="0" x2="368" y2="737" gradientUnits="userSpaceOnUse">
<stop offset="0.00225706" stop-color="#2B5355"/>
<stop offset="1"/>
</linearGradient>
</defs>
</svg>
